X:2
T:Mamore
R:Strathspey
C:Evan MacRae / Arr. Alasdair Gillies
M:C
L:1/8
K:D
{g}f<a {g}a>f {gef}e>d {g}e<f | {g}A>{d}B {g}A<{d}G {g}A2 {GAG}A>g | {a}f<a {g}a>f {gef}e>d {g}e<f | {Gdc}d>e {g}f/e/d {gef}e2 {A}e>g |
{g}f<a {g}a>f {gef}e>d {g}e<f | {g}A>{d}B {g}A<{d}G {g}A2 {GAG}A>g | {a}f<a {g}a>f {gef}e>d {g}e<f | {AGAG}A2 {g}f>e {Gdc}d2 {gdG}d>f ||
|| {ag}a>A {gAGAG}A2 {g}f>A {gAGAG}A2 | {g}B<d {gde}d>B {g}A2 {GAG}A>f | {ag}a>A {gAGAG}A2 {g}f>A {gAGAG}A2 | {g}f<a {g}a>f {gef}e2 {A}e>f |
{ag}a>A {gAGAG}A2 {g}f>A {gAGAG}A2 | {g}B<d {gde}d>B {g}A2 {GAG}A>g | {a}f<a {g}a>f {gef}e>d {g}e<f | {AGAG}A2 {g}f>e {Gdc}d2 {gdG}d>f ||
|| {g}A2 {GdGe}A>d {gBd}B>A {g}B<d | {g}A>{d}B {g}A<{d}G {g}A2 {GAG}A>f | {g}A2 {GdGe}A>d {gBd}B>A {g}B<d | {gdG}d>e {g}f/e/d {gef}e2 {A}e>f |
{g}A2 {GdGe}A>d {gBd}B>A {g}B<d | {g}A>{d}B {g}A<{d}G {g}A2 {GAG}A>g | {a}f<a {g}a>f {gef}e>d {g}e<f | {AGAG}A2 {g}f>e {Gdc}d2 {gdG}d>g ||
|| {a}f/g/a d/e/f {gBd}B>A {g}B<d | {g}A>{d}B {g}A<{d}G {g}A2 {GAG}A>g | {a}f/g/a d/e/f {gef}e>d {g}e<f | {Gdc}d>e {g}f/e/d {gef}e2 {A}e>g |
{a}f/g/a d/e/f {gBd}B>A{g}B<d | {g}A>{d}B {g}A<{d}G {g}A2 {GAG}Ag | {a}f<a {g}a>f {gef}e>d {g}e/f/a | {AGAG}A2 {g}f>e {Gdc}d2 {gdG}d>f ||
